X:148
T:Take The Bull By The Horns
M:6/8
L:1/8
R:Jig
K:Dmajor
|:a2e cee|f2e cBA|a2e cee|fed cBA|a2e cee|fed cBA|dfd cec|BcB A2B:|!
|:A2B cBA|aed cBA|dfd cec|BcB Bcd|A2B cBA|aed cBA|dfd cec|BcB A3:|!
|:cAA eAA|cAA eAA|dBB fBB|dBB fed|cAA eAA|cAA eAA|dfd cec|BcB A3:|

